!!!OTL: Jiangnan chaoyuan yangchengqun
!!!ARE: Asia, China,ÿHunan Chengbu
!! I, 507
!!!SCT: C1963
!!!YEM: Copyright 1995, estate of Helmut Schaffrath.
**kern
*ICvox
*Ivox
!! Mixed meters:  2/4; 3/4
*M2/4
*k[f#c#]
*D:
{16b
16dd
4.b
=1
*M3/4
8ee
16ee
16dd
2ff#
=2
8dd
8ff#
2b
=3
*M2/4
16b
16dd
8b
4r}
=4
{16b
16dd
4.b
=5
*M3/4
8dd
8ff#
16ee
16ff#
16ee
16dd
4ee
=6
8ee
8b
2b
=7
*M2/4
4b
4r}
=8
{16b
16dd
16b
[16b
4b]
=9
*M3/4
8dd
8ff#
16ee
16dd
4.ee
=10
8dd
8ff#
2ee
=11
*M2/4
16ee
16dd
8b
4r}
=12
{16b
16dd
4.b
=13
*M3/4
8dd
8ff#
2ee
=14
8ff#
16ee
16dd
2b
=15
16b
16dd
4b
8r}
==
!!!AGN: Shange, Changan
!!!ONB: ESAC (Essen Associative Code) Database: SENGANSU
!!!AMT: irregular
!!!AIN: vox
!!!EED: Helmut Schaffrath
!!!EEV: 1.0
*-
